build/img/icon-list.svg

<svg width="21" height="24" viewBox="0 0 21 24" fill="none" xmlns="http://www.w3.org/2000/svg">
<g clip-path="url(#clip0)">
<path d="M18.4364 0H10.8728C9.04807 0 7.56372 1.56998 7.56372 3.50001V14.5C7.56372 14.776 7.77552 15 8.03646 15C8.29741 15 8.5092 14.776 8.5092 14.5V3.50001C8.5092 2.12203 9.57 1.00003 10.8728 1.00003H16.5465C16.2496 1.41802 16.0728 1.93701 16.0728 2.50003V17H12.7637C12.5028 17 12.291 17.224 12.291 17.5C12.291 17.776 12.5028 18 12.7637 18H16.5455C16.8064 18 17.0182 17.776 17.0182 17.5V2.50003C17.0182 1.67301 17.6545 1.00003 18.4364 1.00003C18.6974 1.00003 18.9092 0.776015 18.9092 0.500015C18.9092 0.224016 18.6974 0 18.4364 0Z" fill="white"/>
<path d="M14.6545 14H6.14546C4.32075 14 2.83636 15.57 2.83636 17.5V20.5C2.83636 21.878 1.77556 23 0.472741 23C0.211796 23 0 23.224 0 23.5C0 23.776 0.211796 24 0.472741 24H9.92726C11.752 24 13.2364 22.43 13.2364 20.5V16.5C13.2364 15.673 13.8726 15 14.6545 15C14.9155 15 15.1273 14.776 15.1273 14.5C15.1273 14.224 14.9155 14 14.6545 14ZM12.2909 16.5V20.5C12.2909 21.878 11.2301 22.9999 9.9273 22.9999H2.78628C3.40084 22.3639 3.78184 21.479 3.78184 20.5V17.5C3.78184 16.122 4.84264 15 6.14546 15H12.7646C12.4677 15.418 12.2909 15.937 12.2909 16.5Z" fill="white"/>
<path d="M14.6545 14H13.7091C13.4481 14 13.2363 14.224 13.2363 14.5C13.2363 14.776 13.4481 15 13.7091 15H14.6545C15.4364 15 16.0727 15.673 16.0727 16.5V17.5C16.0727 17.776 16.2845 18 16.5454 18C16.8064 18 17.0182 17.776 17.0182 17.5V16.5C17.0181 15.122 15.9573 14 14.6545 14Z" fill="white"/>
<path d="M18.4364 0C18.1754 0 17.9636 0.224016 17.9636 0.500015C17.9636 0.776015 18.1754 1.00003 18.4364 1.00003C19.2183 1.00003 19.8546 1.67301 19.8546 2.50003V3H16.5455C16.2845 3 16.0728 3.22401 16.0728 3.50001C16.0728 3.77601 16.2845 4.00003 16.5455 4.00003H20.3273C20.5882 4.00003 20.8 3.77601 20.8 3.50001V2.49998C20.8 1.122 19.7392 0 18.4364 0Z" fill="white"/>
<path d="M14.6546 3H9.92733C9.66639 3 9.45459 3.22402 9.45459 3.50002C9.45459 3.77602 9.66639 4.00003 9.92733 4.00003H14.6546C14.9156 4.00003 15.1274 3.77602 15.1274 3.50002C15.1274 3.22402 14.9156 3 14.6546 3Z" fill="white"/>
<path d="M14.6546 6H9.92733C9.66639 6 9.45459 6.22402 9.45459 6.50002C9.45459 6.77602 9.66639 7.00003 9.92733 7.00003H14.6546C14.9156 7.00003 15.1274 6.77602 15.1274 6.50002C15.1274 6.22402 14.9156 6 14.6546 6Z" fill="white"/>
<path d="M14.6546 9H9.92733C9.66639 9 9.45459 9.22402 9.45459 9.50002C9.45459 9.77602 9.66639 10 9.92733 10H14.6546C14.9156 10 15.1274 9.77602 15.1274 9.50002C15.1274 9.22402 14.9156 9 14.6546 9Z" fill="white"/>
<path d="M14.6546 12H9.92733C9.66639 12 9.45459 12.224 9.45459 12.5C9.45459 12.776 9.66639 13 9.92733 13H14.6546C14.9156 13 15.1274 12.776 15.1274 12.5C15.1274 12.224 14.9156 12 14.6546 12Z" fill="white"/>
<path d="M10.8728 17H5.20004C4.93909 17 4.72729 17.224 4.72729 17.5C4.72729 17.776 4.93909 18 5.20004 18H10.8728C11.1337 18 11.3455 17.776 11.3455 17.5C11.3455 17.224 11.1337 17 10.8728 17Z" fill="white"/>
<path d="M10.8728 20H5.20004C4.93909 20 4.72729 20.224 4.72729 20.5C4.72729 20.776 4.93909 21 5.20004 21H10.8728C11.1337 21 11.3455 20.776 11.3455 20.5C11.3455 20.224 11.1337 20 10.8728 20Z" fill="white"/>
</g>
<defs>
<clipPath id="clip0">
<rect width="20.8" height="24" fill="white"/>
</clipPath>
</defs>
</svg>

<svg width="21" height="24" fill="none" xmlns="http://www.w3.org/2000/svg"><g clip-path="url(#clip0)" fill="#fff"><path d="M18.436 0h-7.563c-1.825 0-3.31 1.57-3.31 3.5v11c0 .276.213.5.473.5a.487.487 0 00.473-.5v-11C8.51 2.122 9.57 1 10.873 1h5.674a2.584 2.584 0 00-.474 1.5V17h-3.31a.487.487 0 00-.472.5c0 .276.212.5.473.5h3.782c.26 0 .472-.224.472-.5v-15c0-.827.636-1.5 1.418-1.5a.487.487 0 00.473-.5c0-.276-.212-.5-.473-.5z"/><path d="M14.655 14h-8.51c-1.824 0-3.309 1.57-3.309 3.5v3c0 1.378-1.06 2.5-2.363 2.5a.487.487 0 00-.473.5c0 .276.212.5.473.5h9.454c1.825 0 3.31-1.57 3.31-3.5v-4c0-.827.636-1.5 1.418-1.5a.487.487 0 00.472-.5c0-.276-.212-.5-.473-.5zm-2.364 2.5v4c0 1.378-1.06 2.5-2.364 2.5h-7.14a3.59 3.59 0 00.995-2.5v-3c0-1.378 1.06-2.5 2.363-2.5h6.62a2.584 2.584 0 00-.474 1.5z"/><path d="M14.655 14h-.946a.487.487 0 00-.473.5c0 .276.212.5.473.5h.946c.781 0 1.418.673 1.418 1.5v1c0 .276.212.5.472.5a.487.487 0 00.473-.5v-1c0-1.378-1.06-2.5-2.364-2.5zm3.781-14a.487.487 0 00-.472.5c0 .276.211.5.472.5.782 0 1.419.673 1.419 1.5V3h-3.31a.487.487 0 00-.472.5c0 .276.212.5.473.5h3.781a.487.487 0 00.473-.5v-1c0-1.378-1.06-2.5-2.364-2.5zm-3.781 3H9.927a.487.487 0 00-.472.5c0 .276.211.5.472.5h4.728a.487.487 0 00.472-.5c0-.276-.211-.5-.472-.5zm0 3H9.927a.487.487 0 00-.472.5c0 .276.211.5.472.5h4.728a.487.487 0 00.472-.5c0-.276-.211-.5-.472-.5zm0 3H9.927a.487.487 0 00-.472.5c0 .276.211.5.472.5h4.728a.487.487 0 00.472-.5c0-.276-.211-.5-.472-.5zm0 3H9.927a.487.487 0 00-.472.5c0 .276.211.5.472.5h4.728a.487.487 0 00.472-.5c0-.276-.211-.5-.472-.5zm-3.782 5H5.2a.487.487 0 00-.473.5c0 .276.212.5.473.5h5.673c.26 0 .473-.224.473-.5s-.212-.5-.473-.5zm0 3H5.2a.487.487 0 00-.473.5c0 .276.212.5.473.5h5.673c.26 0 .473-.224.473-.5s-.212-.5-.473-.5z"/></g><defs><clipPath id="clip0"><path fill="#fff" d="M0 0h20.8v24H0z"/></clipPath></defs></svg>
